X:1
T:Rimsky-Korsakov harmonic exercises
T:Rimsky-Korsakov harmonic exercises 10-12
T:"Practical Manual of Harmony" (1885)
T:Realizations by S. Shchetnikov
%%score { ( 1 2 ) | ( 3 4 ) }
L:1/8
Q:1/2=100
M:3/1
K:C
V:1 treble nm="Piano" snm="Pno."
V:2 treble 
V:3 bass 
V:4 bass 
V:1
"""^Leap of the thirds of the chords in the harmony\n(The measure of the leap is not a third, but a fourth or a fifth.)\n""^Examples by Rimsky-Korsakov:""_C:" (e8"" B8)"" c8 |] %1
"" (B8"" e8)"" d8 |]"" (e8"" A8)"" c8 |]"" (A8"" e8)"" c8 |] %4
[M:2/2]"""^Example 10 by Rimsky-Korsakov:"[Q:1/2=80]"_C:" e4"" B4 |"" c4"" G4 |"" A4"" E4 | %7
"" F4"" A4 |"" G4 e4 |"" A4"" f4 |"" e4"" B4 |"" c8 |][K:G]"^Exercise 10.1" G4 d4 | B4 F4 | G4 A4 | %15
 B4 G4 | A4 d4 | B4 e4 | d4 d4 | B8 |]"""^Realization 10.1""_G:" G4"" d4 |"" B4"" F4 |"" G4"" A4 | %23
"" B4 G4 |"" A4 d4 |"" B4"" e4 |"" d4"" d4 |"" B8 |] %28
[K:C][M:3/1]"""^Leap of the thirds of the chords in the harmony""^Examples by Rimsky-Korsakov:"[Q:1/2=100]"_C:" g8"" g8"" e8 |] %29
"" c8"" c8"" B8 |]"" g8"" g8"" e8 |]"" c8"" c8"" B8 |] %32
"""^Additional examples:""_C:" c8"" g8"" e8 |]"" G8"" d8"" c8 |]"" c8"" f8"" e8 |] %35
"" G8"" c8"" c8 |]"" c8"" d8"" e8 |] %37
[M:3/2]"""^Example 11  by Rimsky-Korsakov:"[Q:1/2=80]"_a:" c4"" d4"" e4 |"" e4"" c4"" d4 | %39
"" e4"" e4"" c4 |"" d4"" B4"" e4 |"" e4 c4"" d4 |"" c4"" B4"" A4 |"" d4"" c4"" ^G4 |"" A12 |] %45
[K:Eb][M:2/2] z8 | z8 | z8 | z8 | z8 | z8 | z8 | z8 |]"""^Realization 11.1""_c:" c4"" A4 | %54
"" G4"" c4 |"" =B4"" d4 |"" e4"" d4 |"" c4 g4 |"" g4"" e4 |"" f4"" d4 |"" c8 |] %61
[K:C][M:4/1]"""^Sixth chord vii⁶""^Examples (harmonization of tetrachord):"[Q:1/2=100]"_C:" G8"" A8"" B8"" c8 |] %62
"" G8"" A8"" B8"" c8 |]"" c8"" c8"" d8"" e8 |]"" e8"" f8"" f8"" e8 |]"" G8"" A8"" B8"" c8 |] %66
"" c8"" c8"" B8"" c8 |]"" E8"" F8"" F8"" E8 |]"" e8"" f8"" B8"" c8 |]"""_a:" A8"" ^F8"" ^G8"" A8 |] %70
"" E8"" ^F8"" ^G8"" A8 |]"" E8"" ^F8"" ^G8"" A8 |] %72
[M:2/2] z4""[Q:1/2=80]"^Passing chord on strong beat (instead V⁶₄):""_C:" c4 |"" B4"" c4 | %74
"" A4 z4 |][K:B] z8 | z8 | z8 | z8 | z8 | z8 | z8 | z8 |]"""^Realization 12.1""_B:" B4"" B4 | %84
"" c4"" d4 |"" f4"" d4 |"" g4"" e4 |"" d4"" f4 |"" B4"" e4 |"" d4"" c4 |"" B8 |] %91
V:2
 G8 G8 G8 |] G8 G8 G8 |] G8 F8 G8 |] F8 G8 G8 |][M:2/2] G8 | G4 C4 | C8 | C8 | C4 G4 | F4 F4 | %10
 G4 G4 | G8 |][K:G] x8 | x8 | x8 | x8 | x8 | x8 | x8 | x8 |] D8 | D8 | D8 | D8 | F4 A4 | G8 | %26
 G4 F4 | D8 |][K:C][M:3/1] G8 G8 G8 |] G8 F8 G8 |] G8 G8 G8 |] F8 G8 G8 |] G8 G8 G8 |] G8 G8 G8 |] %34
 G8 F8 G8 |] G8 F8 G8 |] G8 G8 G8 |][M:3/2] E4 F4 E4 | E8 A4 | A4 ^G4 E4 | F4 E4 E4 | A4 E4 F4 | %42
 E12 | D4 E8 | E12 |][K:Eb][M:2/2] x8 | x8 | x8 | x8 | x8 | x8 | x8 | x8 |] G4 F4 | G4 F4 | G8 | %56
 G8 | G8 | G8 | F4 G4 | E8 |][K:C][M:4/1] C8 C8 D8 E8 |] C8 C8 F8 E8 |] G8 A8 B8 c8 |] %64
 G8 A8 B8 c8 |] E8 F8 F8 G8 |] G8 A8 F8 G8 |] C8 C8 B,8 C8 |] G8 A8 F8 E8 |] E8 D8 D8 C8 |] %70
 E8 D8 D8 C8 |] E8 E8 D8 E8 |][M:2/2] z4 G4 | F4 G4 | F4 z4 |][K:B] x8 | x8 | x8 | x8 | x8 | x8 | %81
 x8 | x8 |] F4 G4 | A4 B4 | c4 B4 | B4 A4 | B8 | B8 | B4 A4 | F8 |] %91
V:3
 C8 D8 C8 |] D8 C8 D8 |] C8 C8 C8 |] C8 C8 C8 |][M:2/2] C4 D4 | G,4 E,4 | F,4 G,4 | F,8 | E,4 C4 | %9
 C4 C4 | C4 D4 | E8 |][K:G] z8 | z8 | z8 | z8 | z8 | z8 | z8 | z8 |] B,4 A,4 | G,4 A,4 | G,4 F,4 | %23
 G,4 B,4 | D4 F4 | D4 C4 | B,4 A,4 | G,8 |][K:C][M:3/1] C8 D8 C8 |] C8 C8 D8 |] D8 C8 C8 |] %31
 C8 C8 D8 |] C8 D8 C8 |] C8 D8 E8 |] C8 C8 C8 |] C8 C8 E8 |] G,8 D8 C8 |][M:3/2] A,12 | B,4 A,8 | %39
 A,4 B,4 A,4 | A,4 ^G,4 B,4 | C4 A,8 | A,4 ^G,4 A,4 | A,8 B,4 | C12 |] %45
[K:Eb][M:2/2]"^Exercise 11.1" C,4 F,4 | E,4 A,4 | G,4 =B,,4 | C,4 D,4 | E,8 | =B,,4 C,4 | %51
 A,,4 G,,4 | C,8 |] E4 C4 | C8 | D8 | C4 =B,4 | C8 | D4 C4 | C4 =B,4 | G,8 |] %61
[K:C][M:4/1] E,8 F,8 F,8 G,8 |] E,8 F,8 F,8 G,8 |] E8 F8 F8 G8 |] C8 C8 F8 G8 |] C8 C8 D8 C8 |] %66
 E8 F8 F8 E8 |] G,8 A,8 F,8 G,8 |] C8 C8 D8 G,8 |] C8 A,8 B,8 E,8 |] A,8 A,8 B,8 E,8 |] %71
 A,8 A,8 B,8 C8 |][M:2/2] z4 E4 | D4 C4 | C4 z4 |][K:B]"^Exercise 12.1" B,,4 E,4 | C,4 B,,4 | %77
 A,,4 B,,4 | E,4 C,4 | B,,4 D,4 | G,4 E,4 | F,4 F,,4 | B,,8 |] D4 E4 | E4 F4 | F8 | E8 | F8 | %88
 E4 G4 | F8 | D8 |] %91
V:4
 C,8 G,8 E,8 |] G,8 C,8 B,,8 |] C,8 F,8 E,8 |] F,8 C,8 E,8 |][M:2/2] C,4 G,4 | E,4 C,4 | F,4 C,4 | %7
 A,,4 F,,4 | C,8 | F,4 A,4 | G,4 G,4 | C,8 |][K:G] x8 | x8 | x8 | x8 | x8 | x8 | x8 | x8 |] %20
 G,4 F,4 | G,4 D,4 | B,,4 A,,4 | G,,4 G,4 | D,8 | G,4 C,4 | D,8 | G,,8 |] %28
[K:C][M:3/1] (E,8 B,,8) C,8 |] (E,8 A,8) G,8 |] (B,,8 E,8) C,8 |] (A,8 E,8) G,8 |] %32
 (E,8 B,,8) C,8 |] (E,8 B,,8) C,8 |] (E,8 A,,8) C,8 |] (E,8 A,,8) C,8 |] (E,8 B,,8) C,8 |] %37
[M:3/2] A,,4 D,4 C,4 | ^G,,4 A,,4 F,4 | C,4 E,4 A,,4 | D,4 E,4 ^G,,4 | A,,8 D,4 | A,,4 B,,4 C,4 | %43
 F,4 E,8 | A,,12 |][K:Eb][M:2/2] x8 | x8 | x8 | x8 | x8 | x8 | x8 | x8 |] C,4 F,4 | E,4 A,4 | %55
 G,4 =B,,4 | C,4 D,4 | E,8 | =B,,4 C,4 | A,,4 G,,4 | C,8 |][K:C][M:4/1] C,8 F,8 D,8 C,8 |] %62
 C,8 F,8 D,8 C,8 |] C,8 F,8 D,8 C,8 |] C,8 F,8 D,8 C,8 |] C,8 F,8 D,8 E,8 |] C,8 F,8 D,8 C,8 |] %67
 C,8 F,8 D,8 C,8 |] C,8 F,8 D,8 C,8 |] A,,8 D,8 B,,8 A,,8 |] C,8 C,8 B,,8 A,,8 |] %71
 C,8 C,8 B,,8 A,,8 |][M:2/2] z4 C,4 | D,4 E,4 | F,4 z4 |][K:B] x8 | x8 | x8 | x8 | x8 | x8 | x8 | %82
 x8 |] B,,4 E,4 | C,4 B,,4 | A,,4 B,,4 | E,4 C,4 | B,,4 D,4 | G,4 E,4 | F,4 F,,4 | B,,8 |] %91

